icons/solid/users.svg

<svg width="24" height="24" viewBox="0 0 24 24" fill="none" xmlns="http://www.w3.org/2000/svg">
<path d="M4.5 6.375C4.5 4.09683 6.34683 2.25 8.625 2.25C10.9032 2.25 12.75 4.09683 12.75 6.375C12.75 8.65317 10.9032 10.5 8.625 10.5C6.34683 10.5 4.5 8.65317 4.5 6.375Z" fill="#0F172A"/>
<path d="M14.25 8.625C14.25 6.76104 15.761 5.25 17.625 5.25C19.489 5.25 21 6.76104 21 8.625C21 10.489 19.489 12 17.625 12C15.761 12 14.25 10.489 14.25 8.625Z" fill="#0F172A"/>
<path d="M1.5 19.125C1.5 15.19 4.68997 12 8.625 12C12.56 12 15.75 15.19 15.75 19.125V19.1276C15.75 19.1674 15.7496 19.2074 15.749 19.2469C15.7446 19.5054 15.6074 19.7435 15.3859 19.8768C13.4107 21.0661 11.0966 21.75 8.625 21.75C6.15343 21.75 3.8393 21.0661 1.86406 19.8768C1.64256 19.7435 1.50537 19.5054 1.50103 19.2469C1.50034 19.2064 1.5 19.1657 1.5 19.125Z" fill="#0F172A"/>
<path d="M17.2498 19.1281C17.2498 19.1762 17.2494 19.2244 17.2486 19.2722C17.2429 19.6108 17.1612 19.9378 17.0157 20.232C17.2172 20.2439 17.4203 20.25 17.6248 20.25C19.2205 20.25 20.732 19.8803 22.0764 19.2213C22.3234 19.1002 22.4843 18.8536 22.4957 18.5787C22.4984 18.5111 22.4998 18.4432 22.4998 18.375C22.4998 15.6826 20.3172 13.5 17.6248 13.5C16.8784 13.5 16.1711 13.6678 15.5387 13.9676C16.6135 15.4061 17.2498 17.1912 17.2498 19.125V19.1281Z" fill="#0F172A"/>
</svg>

<svg xmlns="http://www.w3.org/2000/svg" viewBox="0 0 24 24" fill="currentColor" aria-hidden="true" data-slot="icon">
  <path d="M4.5 6.375a4.125 4.125 0 1 1 8.25 0 4.125 4.125 0 0 1-8.25 0ZM14.25 8.625a3.375 3.375 0 1 1 6.75 0 3.375 3.375 0 0 1-6.75 0ZM1.5 19.125a7.125 7.125 0 0 1 14.25 0v.003l-.001.119a.75.75 0 0 1-.363.63 13.067 13.067 0 0 1-6.761 1.873c-2.472 0-4.786-.684-6.76-1.873a.75.75 0 0 1-.364-.63l-.001-.122ZM17.25 19.128l-.001.144a2.25 2.25 0 0 1-.233.96 10.088 10.088 0 0 0 5.06-1.01.75.75 0 0 0 .42-.643 4.875 4.875 0 0 0-6.957-4.611 8.586 8.586 0 0 1 1.71 5.157v.003Z"/>
</svg>
